!!!OTL: 225. Den Schatz suchen.
!!!ARE: Europa, Mitteleuropa, Deutschland, Kassel
!!!SCT: K2225
!!!TXL: @@DE
!!!YEM: Copyright 1995, estate of Helmut Schaffrath.
**kern	**text
*clefG2	*
*M2/4	*
*k[]	*
*C:	*
=1	=1
{8cc	Woll'n
8cc	die
8cc	wei-
8cc	-ſen
=2	=2
8ee	Frau-
8cc	-en
8cc	fra-
8cc}	-gen,
=3	=3
{8cc	ob
8cc	ſie
8cc	kei-
8cc	-ne
=4	=4
8ee	Töch-
8cc	-ter
8cc	ha-
8cc}	-ben.
=5	=5
{8cc	Reh-
8cc	-men
4ee	Sie,
=6	=6
8cc	neh-
8cc	-men
4ee}	Sie,
=7	=7
{8.g	wel-
16f	-che
8e	woll'n
8d	Sie
=8	=8
4d	ha-
4c}	-ben?
==	==
!!!AGN: Kinder - Lied, Reigen, Tanz - Spiel, Brautwerbung
!!!ONB: ESAC (Essen Associative Code) Database: KINDER
!!!AMT: simple duple
!!!AIN: vox
!!!EED: Helmut Schaffrath
!!!EEV: 1.0
!!Mel. aus Kassel. 3. Lewalter IV. Nr. 1.
!!!GTL: Zweites Buch. Kinderspiel: 2. Reigen und Tanzspiele. / D. Ringelreigen mit Wahl (Brautwerbung).
!!@@COMMENT:"Die Kinder ſchließen einen Kreis. Eines der mitſpielenden ſteht in der Mitte desſelben und ſucht ſich mit den Worten: "Dieſe will ich haben" ein Kind aus, 
!!welches dann in die Mitte tritt. - Text nach Dr. Eskuche Rr. 202."
!!@@END:
!!!URL-scan: https://archive.org/details/DeutschesKinderliedUndKinderspiel/page/489/mode/1up
!!!ENC: Anna Maria Matuszewska
!!!EEV: 2024/04/09
*-	*-
